;FLAVOR:Marlin
;TIME:1494
;Filament used: 1.366m
;Layer height: 0.2
;MINX:88.819
;MINY:62.357
;MINZ:0.3
;MAXX:113.719
;MAXY:85.598
;MAXZ:31.1
;Generated with Cura_SteamEngine 4.13.1
M140 S50
M105
M190 S50
M104 S210
M105
M109 S210
M82 ;absolute extrusion mode
START_PRINT
G92 E0
G92 E0
G1 F2400 E-0.7
;LAYER_COUNT:155
;LAYER:0
M107
G0 F6000 X91.649 Y66.996 Z0.3
;TYPE:SKIRT
G1 F2400 E0
G1 F3000 X92.114 Y66.385 E0.03831
G1 X92.704 Y65.722 E0.08258
G1 X93.078 Y65.355 E0.10873
G1 X93.543 Y64.938 E0.13989
G1 X94.098 Y64.5 E0.17516
G1 X94.575 Y64.17 E0.2041
G1 X95.001 Y63.9 E0.22926
G1 X95.682 Y63.528 E0.26797
G1 X96.205 Y63.284 E0.29677
G1 X96.715 Y63.073 E0.3243
G1 X97.391 Y62.841 E0.35996
G1 X97.924 Y62.692 E0.38757
G1 X98.79 Y62.512 E0.4317
G1 X99.314 Y62.434 E0.45813
G1 X100.102 Y62.369 E0.49758
G1 X100.673 Y62.357 E0.52607
G1 X101.533 Y62.397 E0.56902
G1 X102.065 Y62.452 E0.5957
G1 X102.808 Y62.576 E0.63329
G1 X103.361 Y62.706 E0.66163
G1 X103.844 Y62.84 E0.68663
G1 X104.576 Y63.093 E0.72527
G1 X105.088 Y63.308 E0.75298
G1 X105.617 Y63.559 E0.78219
G1 X106.275 Y63.924 E0.81973
G1 X106.729 Y64.213 E0.84658
G1 X107.167 Y64.52 E0.87327
G1 X107.731 Y64.967 E0.90917
G1 X108.106 Y65.302 E0.93426
G1 X108.484 Y65.671 E0.96061
G1 X109.016 Y66.257 E1.0001
G1 X109.365 Y66.696 E1.02808
G1 X109.672 Y67.117 E1.05407
G1 X110.091 Y67.776 E1.09303
G1 X110.341 Y68.228 E1.1188
G1 X110.586 Y68.717 E1.14609
G1 X110.881 Y69.415 E1.18389
G1 X111.065 Y69.94 E1.21165
G1 X111.226 Y70.473 E1.23943
G1 X111.402 Y71.229 E1.27815
G1 X111.495 Y71.788 E1.30642
G1 X111.56 Y72.319 E1.33311
G1 X111.605 Y73.084 E1.37135
G1 X111.591 Y73.95 E1.41456
G1 X111.548 Y74.479 E1.44104
G1 X111.475 Y75.053 E1.4699
G1 X111.326 Y75.82 E1.50888
G1 X111.191 Y76.342 E1.53578
G1 X110.952 Y77.085 E1.57472
G1 X110.722 Y77.669 E1.60604
G1 X110.401 Y78.353 E1.64373
G1 X110.135 Y78.836 E1.67124
G1 X109.82 Y79.355 E1.70153
G1 X109.411 Y79.937 E1.73702
G1 X109.357 Y80.011 E1.74159
G1 X108.767 Y80.785 E1.79015
G1 X107.123 Y83.007 E1.92804
G1 X106.199 Y84.317 E2.00802
G1 X105.885 Y84.692 E2.03242
G1 X105.514 Y85.012 E2.05687
G1 X105.097 Y85.268 E2.08128
G1 X104.643 Y85.452 E2.10572
G1 X104.166 Y85.559 E2.13011
G1 X103.508 Y85.597 E2.16299
G1 X98.138 Y85.598 E2.4309
G1 X97.436 Y85.588 E2.46593
G1 X96.949 Y85.541 E2.49034
G1 X96.476 Y85.415 E2.51476
G1 X96.029 Y85.215 E2.53919
G1 X95.622 Y84.944 E2.56358
G1 X95.263 Y84.61 E2.58805
G1 X95.043 Y84.339 E2.60546
G1 X94.505 Y83.59 E2.65147
G1 X93.988 Y82.847 E2.69663
G1 X92.514 Y80.849 E2.8205
G1 X91.798 Y79.901 E2.87977
G1 X91.355 Y79.257 E2.91877
G1 X91.089 Y78.815 E2.9445
G1 X90.721 Y78.116 E2.98392
G1 X90.505 Y77.643 E3.00986
G1 X90.317 Y77.168 E3.03534
G1 X90.135 Y76.64 E3.06321
G1 X89.929 Y75.893 E3.10187
G1 X89.816 Y75.351 E3.12949
G1 X89.728 Y74.819 E3.15639
G1 X89.654 Y74.072 E3.19384
G1 X89.633 Y73.57 E3.21891
G1 X89.635 Y73.018 E3.24645
G1 X89.69 Y72.19 E3.28785
G1 X89.808 Y71.37 E3.32918
G1 X89.927 Y70.814 E3.35755
G1 X90.061 Y70.294 E3.38434
G1 X90.291 Y69.588 E3.42138
G1 X90.499 Y69.064 E3.44951
G1 X90.719 Y68.573 E3.47635
G1 X91.055 Y67.932 E3.51246
G1 X91.32 Y67.493 E3.53804
G1 X91.649 Y66.996 E3.56778
G0 F6000 X92.163 Y66.973
G1 F3000 X92.516 Y66.527 E3.59615
G1 X92.998 Y65.993 E3.63204
G1 X93.405 Y65.597 E3.66037
G1 X93.795 Y65.248 E3.68648
G1 X94.342 Y64.817 E3.72123
G1 X94.792 Y64.506 E3.74852
G1 X95.417 Y64.123 E3.78509
G1 X95.87 Y63.881 E3.81071
G1 X96.362 Y63.652 E3.83778
G1 X96.849 Y63.449 E3.86411
G1 X97.517 Y63.221 E3.89932
G1 X98.018 Y63.081 E3.92527
G1 X98.861 Y62.906 E3.96823
G1 X99.599 Y62.807 E4.00538
G1 X100.13 Y62.768 E4.03194
G1 X100.667 Y62.757 E4.05874
G1 X101.505 Y62.796 E4.10059
G1 X102.009 Y62.848 E4.12587
G1 X102.737 Y62.969 E4.16269
G1 X103.266 Y63.094 E4.18981
G1 X103.962 Y63.298 E4.22599
G1 X104.439 Y63.469 E4.25127
G1 X104.929 Y63.675 E4.27779
G1 X105.428 Y63.911 E4.30533
G1 X106.077 Y64.272 E4.34238
G1 X106.502 Y64.542 E4.3675
G1 X106.923 Y64.837 E4.39315
G1 X107.478 Y65.277 E4.42848
G1 X107.897 Y65.656 E4.45667
G1 X108.414 Y66.18 E4.49339
G1 X108.807 Y66.632 E4.52328
G1 X109.272 Y67.243 E4.56158
G1 X109.749 Y67.984 E4.60555
G1 X110.024 Y68.485 E4.63406
G1 X110.353 Y69.179 E4.67238
G1 X110.545 Y69.655 E4.69799
G1 X110.795 Y70.418 E4.73804
G1 X110.931 Y70.952 E4.76553
G1 X111.039 Y71.463 E4.79159
G1 X111.147 Y72.218 E4.82964
G1 X111.205 Y73.103 E4.87389
G1 X111.191 Y73.936 E4.91545
G1 X111.149 Y74.443 E4.94083
G1 X111.081 Y74.984 E4.96804
G1 X110.934 Y75.738 E5.00636
G1 X110.807 Y76.229 E5.03167
G1 X110.574 Y76.954 E5.06966
G1 X110.358 Y77.503 E5.09909
G1 X110.041 Y78.178 E5.1363
G1 X109.792 Y78.631 E5.16209
G1 X109.489 Y79.129 E5.19117
G1 X109.086 Y79.704 E5.2262
G1 X108.449 Y80.542 E5.27871
G1 X106.822 Y82.741 E5.41519
G1 X105.872 Y84.086 E5.49734
G1 X105.578 Y84.434 E5.52007
G1 X105.227 Y84.726 E5.54285
G1 X104.832 Y84.952 E5.56555
G1 X104.402 Y85.105 E5.58832
G1 X103.819 Y85.188 E5.6177
G1 X103.424 Y85.198 E5.63741
G1 X98.144 Y85.198 E5.90083
G1 X97.442 Y85.188 E5.93586
G1 X96.989 Y85.141 E5.95858
G1 X96.55 Y85.017 E5.98134
G1 X96.141 Y84.817 E6.00406
G1 X95.772 Y84.549 E6.02681
G1 X95.368 Y84.106 E6.05672
G1 X94.833 Y83.362 E6.10244
G1 X94.292 Y82.585 E6.14967
G1 X92.833 Y80.607 E6.2723
G1 X92.124 Y79.669 E6.33096
G1 X91.688 Y79.035 E6.36935
G1 X91.271 Y78.319 E6.41069
G1 X91.04 Y77.856 E6.4365
G1 X90.816 Y77.35 E6.46411
G1 X90.566 Y76.674 E6.50007
G1 X90.41 Y76.151 E6.52729
G1 X90.282 Y75.646 E6.55329
G1 X90.145 Y74.907 E6.59078
G1 X90.052 Y74.037 E6.63443
G1 X90.031 Y73.179 E6.67725
G1 X90.057 Y72.605 E6.70592
G1 X90.103 Y72.092 E6.73162
G1 X90.203 Y71.433 E6.76487
G1 X90.315 Y70.911 E6.7915
G1 X90.444 Y70.412 E6.81722
G1 X90.67 Y69.716 E6.85373
G1 X90.866 Y69.225 E6.8801
G1 X91.076 Y68.754 E6.90583
G1 X91.407 Y68.122 E6.94142
G1 X91.702 Y67.637 E6.96974
G1 X92.163 Y66.973 E7.01007
G0 F6000 X92.292 Y67.472
G1 F3000 X92.744 Y66.878 E7.04731
G1 X93.292 Y66.265 E7.08833
G1 X93.674 Y65.893 E7.11494
G1 X94.047 Y65.559 E7.13991
G1 X94.586 Y65.134 E7.17416
G1 X95.008 Y64.843 E7.19973
G1 X95.616 Y64.47 E7.23532
G1 X96.173 Y64.177 E7.26672
G1 X96.864 Y63.873 E7.30438
G1 X97.643 Y63.601 E7.34555
G1 X98.41 Y63.398 E7.38513
G1 X98.932 Y63.299 E7.41164
G1 X99.64 Y63.204 E7.44728
G1 X100.157 Y63.167 E7.47314
G1 X100.661 Y63.157 E7.49829
G1 X101.476 Y63.195 E7.53899
G1 X102.151 Y63.272 E7.57288
G1 X102.666 Y63.363 E7.59898
G1 X103.17 Y63.483 E7.62482
G1 X103.84 Y63.679 E7.65965
G1 X104.425 Y63.893 E7.69073
G1 X105.133 Y64.211 E7.72945
G1 X105.879 Y64.619 E7.77187
G1 X106.583 Y65.084 E7.81396
G1 X107.225 Y65.587 E7.85465
G1 X107.618 Y65.942 E7.88107
G1 X108.124 Y66.455 E7.91702
G1 X108.492 Y66.878 E7.945
G1 X108.95 Y67.48 E7.98273
G1 X109.408 Y68.193 E8.02501
G1 X109.667 Y68.666 E8.05192
G1 X109.987 Y69.341 E8.08918
G1 X110.202 Y69.882 E8.11823
G1 X110.413 Y70.537 E8.15256
G1 X110.54 Y71.039 E8.17839
G1 X110.692 Y71.825 E8.21833
G1 X110.762 Y72.381 E8.24629
G1 X110.806 Y73.121 E8.28328
G1 X110.792 Y73.922 E8.32324
G1 X110.744 Y74.477 E8.35104
G1 X110.639 Y75.189 E8.38694
G1 X110.516 Y75.767 E8.41642
G1 X110.337 Y76.408 E8.44963
G1 X110.166 Y76.905 E8.47585
G1 X109.846 Y77.662 E8.51685
G1 X109.624 Y78.113 E8.54193
G1 X109.229 Y78.793 E8.58116
G1 X108.76 Y79.472 E8.62234
G1 X108.721 Y79.526 E8.62566
G1 X108.131 Y80.3 E8.67421
G1 X106.496 Y82.51 E8.81136
G1 X105.545 Y83.856 E8.89359
G1 X105.272 Y84.174 E8.9145
G1 X104.944 Y84.435 E8.93541
G1 X104.572 Y84.628 E8.95632
G1 X104.17 Y84.748 E8.97725
G1 X103.485 Y84.797 E9.01151
G1 X98.15 Y84.798 E9.27767
G1 X97.448 Y84.788 E9.3127
G1 X97.031 Y84.742 E9.33363
G1 X96.631 Y84.618 E9.35452
G1 X96.261 Y84.42 E9.37546
G1 X95.936 Y84.156 E9.39635
G1 X95.693 Y83.872 E9.415
G1 X95.162 Y83.133 E9.4604
G1 X94.655 Y82.405 E9.50466
G1 X93.135 Y80.344 E9.63242
G1 X92.45 Y79.437 E9.68913
G1 X92.02 Y78.812 E9.72697
G1 X91.62 Y78.124 E9.76668
G1 X91.234 Y77.314 E9.81144
G1 X90.943 Y76.54 E9.8527
G1 X90.797 Y76.049 E9.87825
G1 X90.615 Y75.274 E9.91797
G1 X90.522 Y74.724 E9.9458
G1 X90.45 Y74.002 E9.982
G1 X90.431 Y73.177 E10.02317
G1 X90.456 Y72.638 E10.05009
G1 X90.529 Y71.931 E10.08555
G1 X90.622 Y71.368 E10.11402
G1 X90.794 Y70.644 E10.15114
G1 X91.049 Y69.844 E10.19303
G1 X91.378 Y69.051 E10.23587
G1 X91.617 Y68.575 E10.26244
G1 X92.002 Y67.911 E10.30073
G1 X92.292 Y67.472 E10.32698
G1 F2400 E9.62698
G0 F6000 X100.448 Y69.209
G1 F2400 E10.32698
G1 F3000 X100.838 Y69.203 E10.34644
G1 X101.357 Y69.079 E10.37306
G1 X101.723 Y69.013 E10.39162
G1 X101.735 Y69.549 E10.41836
G1 X100.617 Y69.639 E10.47432
G1 X100.486 Y69.668 E10.48102
G1 X100.448 Y69.209 E10.50399
G0 F6000 X100.457 Y68.811
G1 F3000 X100.745 Y68.814 E10.51836
G1 X101.265 Y68.69 E10.54503
G1 X101.832 Y68.588 E10.57378
G1 X102.114 Y68.558 E10.58792
G1 X102.142 Y69.917 E10.65574
G1 X100.649 Y70.038 E10.73047
G1 X100.438 Y70.095 E10.74137
G1 X100.262 Y70.223 E10.75223
G1 X100.145 Y70.399 E10.76277
G1 X100.004 Y68.695 E10.84808
G1 X100.457 Y68.811 E10.87141
G0 F6000 X100.556 Y68.424
G1 F3000 X100.652 Y68.425 E10.8762
G1 X101.187 Y68.297 E10.90364
G1 X101.774 Y68.191 E10.9334
G1 X102.358 Y68.13 E10.9627
G1 X102.507 Y68.184 E10.9706
G1 X102.55 Y70.286 E11.07549
G1 X100.681 Y70.437 E11.16904
G1 X100.518 Y70.547 E11.17885
G1 X100.341 Y70.905 E11.19878
G1 X100.352 Y71.102 E11.20862
G1 X101.486 Y72.865 E11.3132
G1 X101.263 Y73.239 E11.33493
G1 X100.866 Y73.964 E11.37616
G1 X100.841 Y74.049 E11.38058
G1 X100.762 Y75.449 E11.45054
G1 X100.793 Y75.587 E11.4576
G1 X100.744 Y76.019 E11.47929
G1 X100.789 Y76.165 E11.48691
G1 X100.77 Y76.533 E11.50529
G1 X100.792 Y77.103 E11.53375
G1 X101.228 Y78.118 E11.58887
G1 X101.026 Y78.352 E11.60429
G1 X100.977 Y78.471 E11.61071
G1 X100.956 Y78.827 E11.6285
G1 X100.395 Y78.833 E11.65649
G1 X100.411 Y78.668 E11.66476
G1 X100.362 Y78.517 E11.67268
G1 X100.012 Y78.118 E11.69916
G1 X100.444 Y77.108 E11.75397
G1 X100.46 Y77.029 E11.75799
G1 X100.46 Y76.074 E11.80563
G1 X100.436 Y75.979 E11.81052
G1 X99.293 Y73.85 E11.93108
G1 X99.899 Y72.637 E11.99873
G1 X99.919 Y72.532 E12.00406
G1 X99.561 Y68.193 E12.22127
G1 X99.883 Y68.252 E12.2376
G1 X100.556 Y68.424 E12.27225
G1 F2400 E11.57225
G0 F6000 X100.251 Y71.685
G1 F2400 E12.27225
G1 F3000 X101.015 Y72.873 E12.34272
G1 X100.912 Y73.047 E12.35281
G1 X100.515 Y73.772 E12.39405
G1 X100.442 Y74.026 E12.40723
G1 X100.385 Y75.037 E12.45775
G1 X99.744 Y73.843 E12.52536
G1 X100.257 Y72.816 E12.58264
G1 X100.318 Y72.499 E12.59874
G1 X100.251 Y71.685 E12.63949
G1 F2400 E11.93949
G0 F6000 X100.62 Y77.715
G1 F2400 E12.63949
G1 F3000 X100.762 Y78.046 E12.65746
G1 X100.642 Y78.23 E12.66842
G1 X100.479 Y78.044 E12.68076
G1 X100.62 Y77.715 E12.69861
G1 F2400 E11.99861
G0 F6000 X97.677 Y81.746
G1 F2400 E12.69861
G1 F3000 X98.38 Y81.959 E12.73526
G1 X98.422 Y81.97 E12.73743
G1 X99.135 Y82.121 E12.77379
G1 X99.877 Y82.215 E12.8111
G1 X100.589 Y82.245 E12.84666
G1 X100.643 Y82.245 E12.84935
G1 X101.374 Y82.213 E12.88586
G1 X102.113 Y82.118 E12.92303
G1 X102.813 Y81.97 E12.95872
G1 X103.471 Y81.772 E12.993
G1 X103.554 Y81.749 E12.9973
G1 X103.554 Y82.398 E13.02968
G1 X97.675 Y82.398 E13.32298
G1 X97.677 Y81.746 E13.35551
G1 F2400 E12.65551
;MESH:Intake.stl
G0 F6000 X99.963 Y80.315
;TYPE:WALL-INNER
G1 F2400 E13.35551
G1 F3000 X100.626 Y80.345 E13.38862
G1 X101.281 Y80.314 E13.42134
G1 X101.928 Y80.222 E13.45394
G1 X102.569 Y80.07 E13.48681
G1 X103.187 Y79.857 E13.51942
G1 X103.785 Y79.589 E13.55211
G1 X104.359 Y79.263 E13.58505
G1 X104.894 Y78.888 E13.61764
G1 X105.395 Y78.463 E13.65042
G1 X105.853 Y77.994 E13.68312
G1 X106.265 Y77.484 E13.71583
G1 X106.629 Y76.937 E13.74861
G1 X106.938 Y76.358 E13.78136
G1 X107.192 Y75.754 E13.81405
G1 X107.388 Y75.129 E13.84673
G1 X107.526 Y74.487 E13.87949
G1 X107.602 Y73.835 E13.91223
G1 X107.617 Y73.18 E13.94492
G1 X107.572 Y72.526 E13.97763
G1 X107.465 Y71.878 E14.01039
G1 X107.297 Y71.244 E14.04312
G1 X107.067 Y70.622 E14.0762
G1 X106.785 Y70.029 E14.10896
G1 X106.446 Y69.467 E14.1417
G1 X106.06 Y68.94 E14.1743
G1 X105.624 Y68.451 E14.20698
G1 X105.145 Y68.004 E14.23967
G1 X104.621 Y67.602 E14.27262
G1 X104.067 Y67.254 E14.30526
G1 X103.483 Y66.958 E14.33792
G1 X102.874 Y66.718 E14.37058
G1 X102.237 Y66.535 E14.40364
G1 X101.595 Y66.415 E14.43623
G1 X100.944 Y66.352 E14.46886
G1 X100.288 Y66.352 E14.50159
G1 X99.636 Y66.415 E14.53427
G1 X98.987 Y66.537 E14.56721
G1 X98.358 Y66.719 E14.59988
G1 X97.749 Y66.96 E14.63256
G1 X97.164 Y67.256 E14.66527
G1 X96.607 Y67.609 E14.69816
G1 X96.087 Y68.008 E14.73086
G1 X95.609 Y68.456 E14.76355
G1 X95.175 Y68.944 E14.79613
G1 X94.783 Y69.477 E14.82914
G1 X94.448 Y70.039 E14.86178
G1 X94.164 Y70.634 E14.89467
G1 X93.94 Y71.249 E14.92733
G1 X93.773 Y71.88 E14.95989
G1 X93.666 Y72.532 E14.99286
G1 X93.62 Y73.182 E15.02537
G1 X93.636 Y73.842 E15.0583
G1 X93.712 Y74.491 E15.0909
G1 X93.85 Y75.134 E15.12371
G1 X94.048 Y75.762 E15.15656
G1 X94.302 Y76.364 E15.18916
G1 X94.615 Y76.945 E15.22209
G1 X94.977 Y77.489 E15.25469
G1 X95.388 Y77.999 E15.28737
G1 X95.847 Y78.468 E15.32011
G1 X96.348 Y78.892 E15.35285
G1 X96.886 Y79.268 E15.3856
G1 X97.461 Y79.593 E15.41855
G1 X98.056 Y79.86 E15.45108
G1 X98.676 Y80.071 E15.48376
G1 X99.314 Y80.223 E15.51648
G1 X99.963 Y80.315 E15.54918
G1 F2400 E14.84918
G0 F6000 X101.244 Y80.718
G1 F2400 E15.54918
G1 F3000 X100.616 Y80.744 E15.58032
G1 X99.987 Y80.718 E15.61157
G1 X99.386 Y80.642 E15.64149
G1 X98.773 Y80.511 E15.67236
G1 X98.187 Y80.333 E15.70253
G1 X97.603 Y80.102 E15.73354
G1 X97.056 Y79.83 E15.76402
G1 X96.525 Y79.509 E15.79497
G1 X96.019 Y79.142 E15.82582
G1 X95.554 Y78.74 E15.8563
G1 X95.113 Y78.289 E15.88769
G1 X94.716 Y77.808 E15.91859
G1 X94.364 Y77.299 E15.94909
G1 X94.059 Y76.769 E15.97918
G1 X93.792 Y76.201 E16.01011
G1 X93.58 Y75.629 E16.04055
G1 X93.413 Y75.029 E16.07162
G1 X93.299 Y74.432 E16.10153
G1 X93.233 Y73.799 E16.13294
G1 X93.22 Y73.195 E16.16284
G1 X93.261 Y72.567 E16.19402
G1 X93.352 Y71.949 E16.22486
G1 X93.492 Y71.349 E16.25526
G1 X93.683 Y70.766 E16.28554
G1 X93.927 Y70.185 E16.31669
G1 X94.214 Y69.638 E16.34751
G1 X94.552 Y69.109 E16.37883
G1 X94.913 Y68.635 E16.40817
G1 X95.34 Y68.161 E16.43978
G1 X95.791 Y67.737 E16.47058
G1 X96.261 Y67.364 E16.50032
G1 X96.799 Y67.008 E16.53211
G1 X97.316 Y66.724 E16.56113
G1 X97.898 Y66.465 E16.59252
G1 X98.487 Y66.26 E16.62363
G1 X99.089 Y66.105 E16.65465
G1 X99.68 Y66.005 E16.68419
G1 X100.317 Y65.952 E16.71594
G1 X100.933 Y65.952 E16.74667
G1 X101.563 Y66.007 E16.77811
G1 X102.154 Y66.106 E16.80773
G1 X102.756 Y66.262 E16.83835
G1 X103.35 Y66.469 E16.86935
G1 X103.92 Y66.724 E16.90025
G1 X104.449 Y67.014 E16.93035
G1 X104.973 Y67.363 E16.96176
G1 X105.453 Y67.742 E16.99191
G1 X105.908 Y68.172 E17.02291
G1 X106.329 Y68.639 E17.05402
G1 X106.688 Y69.114 E17.08334
G1 X107.033 Y69.657 E17.11496
G1 X107.311 Y70.189 E17.14448
G1 X107.556 Y70.774 E17.17577
G1 X107.741 Y71.339 E17.20543
G1 X107.888 Y71.969 E17.2377
G1 X107.977 Y72.576 E17.268
G1 X108.017 Y73.201 E17.2991
G1 X108.003 Y73.814 E17.32945
G1 X107.938 Y74.433 E17.36019
G1 X107.823 Y75.034 E17.39036
G1 X107.653 Y75.644 E17.42164
G1 X107.445 Y76.204 E17.45118
G1 X107.171 Y76.784 E17.48318
G1 X106.864 Y77.314 E17.51374
G1 X106.521 Y77.808 E17.54336
G1 X106.118 Y78.296 E17.57461
G1 X105.686 Y78.737 E17.60521
G1 X105.209 Y79.149 E17.63644
G1 X104.71 Y79.511 E17.66681
G1 X104.179 Y79.832 E17.69735
G1 X103.628 Y80.106 E17.72772
G1 X103.056 Y80.332 E17.7581
G1 X102.456 Y80.512 E17.78935
G1 X101.846 Y80.641 E17.82045
G1 X101.244 Y80.718 E17.85031
G0 F6000 X101.275 Y81.117
M104 S205
;TYPE:WALL-OUTER
G1 F3000 X100.616 Y81.145 E17.88322
G1 X99.956 Y81.117 E17.91618
G1 X99.324 Y81.037 E17.94796
G1 X98.668 Y80.897 E17.98143
G1 X98.057 Y80.712 E18.01328
G1 X97.442 Y80.469 E18.04627
G1 X96.863 Y80.181 E18.07853
G1 X96.299 Y79.839 E18.11144
G1 X95.774 Y79.459 E18.14377
G1 X95.276 Y79.028 E18.17663
G1 X94.812 Y78.554 E18.20972
G1 X94.402 Y78.057 E18.24186
G1 X94.03 Y77.52 E18.27445
G1 X93.705 Y76.955 E18.30697
G1 X93.423 Y76.356 E18.34
G1 X93.202 Y75.76 E18.37172
G1 X93.022 Y75.114 E18.40517
G1 X92.903 Y74.489 E18.43692
