;FLAVOR:Marlin
;TIME:7177
;Filament used: 14.3301m
;Layer height: 0.2
;MINX:48.224
;MINY:44.757
;MINZ:0.3
;MAXX:162.311
;MAXY:118.48
;MAXZ:48.1
;Generated with Cura_SteamEngine 4.13.1
M140 S50
M105
M190 S50
M104 S210
M105
M109 S210
M82 ;absolute extrusion mode
START_PRINT
G92 E0
G92 E0
G1 F2400 E-0.7
;LAYER_COUNT:240
;LAYER:0
M107
G0 F6000 X48.874 Y49.417 Z0.3
;TYPE:SKIRT
G1 F2400 E0
G1 F3000 X49.202 Y49.101 E0.02272
G1 X49.58 Y48.847 E0.04544
G1 X49.997 Y48.663 E0.06818
G1 X50.462 Y48.552 E0.09203
G1 X51.415 Y48.414 E0.14007
G1 X54.142 Y47.984 E0.27781
G1 X56.873 Y47.474 E0.41641
G1 X59.55 Y46.895 E0.55306
G1 X60.949 Y46.551 E0.62493
G1 X61.643 Y46.391 E0.66046
G1 X62.148 Y46.326 E0.68587
G1 X62.554 Y46.315 E0.70613
G1 X121.483 Y46.315 E3.64611
G1 X124.272 Y46.276 E3.78527
G1 X127.055 Y46.157 E3.92424
G1 X129.77 Y45.965 E4.06003
G1 X132.503 Y45.694 E4.19705
G1 X135.257 Y45.342 E4.33556
G1 X137.298 Y45.02 E4.43865
G1 X138.047 Y44.93 E4.47628
G1 X138.498 Y44.917 E4.49879
G1 X141.292 Y44.796 E4.63832
G1 X141.802 Y44.768 E4.6638
G1 X142.214 Y44.757 E4.68436
G1 X145.323 Y44.757 E4.83947
G1 X146.103 Y44.769 E4.87839
G1 X147.027 Y44.809 E4.92453
G1 X148.062 Y44.867 E4.97625
G1 X148.897 Y44.891 E5.01792
G1 X149.864 Y44.932 E5.06621
G1 X150.316 Y44.991 E5.08895
G1 X150.958 Y45.226 E5.12306
G1 X153.533 Y46.571 E5.268
G1 X155.29 Y47.437 E5.36572
G1 X155.783 Y47.693 E5.39344
G1 X156.372 Y48.018 E5.427
G1 X156.669 Y48.205 E5.44451
G1 X157.165 Y48.557 E5.47485
G1 X157.708 Y48.966 E5.50877
G1 X157.924 Y49.148 E5.52286
G1 X158.407 Y49.603 E5.55597
G1 X158.875 Y50.07 E5.58895
G1 X159.063 Y50.279 E5.60297
G1 X159.486 Y50.806 E5.63669
G1 X159.879 Y51.327 E5.66925
G1 X160.078 Y51.626 E5.68717
G1 X160.39 Y52.153 E5.71772
G1 X160.694 Y52.694 E5.74868
G1 X160.825 Y52.964 E5.76365
G1 X161.096 Y53.612 E5.79869
G1 X161.235 Y53.976 E5.81813
G1 X161.698 Y55.31 E5.88858
G1 X161.918 Y55.988 E5.92414
G1 X162.133 Y56.686 E5.96058
G1 X162.257 Y57.22 E5.98793
G1 X162.31 Y57.799 E6.01694
G1 X162.302 Y58.212 E6.03755
G1 X162.238 Y58.736 E6.06388
G1 X161.988 Y59.841 E6.12041
G1 X161.422 Y62.502 E6.25613
G1 X160.919 Y65.253 E6.39566
G1 X160.499 Y67.977 E6.53316
G1 X160.157 Y70.707 E6.67043
G1 X159.892 Y73.448 E6.80782
G1 X159.707 Y76.19 E6.94493
G1 X159.597 Y78.944 E7.08243
G1 X159.565 Y81.693 E7.21959
G1 X159.613 Y84.48 E7.35865
G1 X159.736 Y87.194 E7.4942
G1 X159.938 Y89.939 E7.63151
G1 X160.221 Y92.713 E7.77063
G1 X160.578 Y95.44 E7.90784
G1 X161.004 Y98.11 E8.04273
G1 X161.522 Y100.851 E8.1819
G1 X162.233 Y104.072 E8.34647
G1 X162.311 Y104.843 E8.38513
G1 X162.275 Y105.457 E8.41581
G1 X162.136 Y106.129 E8.45005
G1 X161.882 Y106.957 E8.49326
G1 X161.574 Y107.904 E8.54294
G1 X161.441 Y108.29 E8.56331
G1 X160.985 Y109.487 E8.62721
G1 X160.695 Y110.131 E8.66245
G1 X160.356 Y110.735 E8.69701
G1 X160.023 Y111.291 E8.72934
G1 X159.531 Y111.965 E8.77097
G1 X159.05 Y112.565 E8.80934
G1 X158.856 Y112.78 E8.82378
G1 X158.353 Y113.278 E8.8591
G1 X157.92 Y113.685 E8.88875
G1 X157.628 Y113.927 E8.90767
G1 X157.128 Y114.299 E8.93876
G1 X156.603 Y114.668 E8.97077
G1 X156.364 Y114.817 E8.98482
G1 X155.763 Y115.148 E9.01905
G1 X154.698 Y115.692 E9.07872
G1 X153.152 Y116.457 E9.16477
G1 X152.241 Y116.945 E9.21633
G1 X152.125 Y116.995 E9.22264
G1 X150.964 Y117.602 E9.288
G1 X150.544 Y117.777 E9.3107
G1 X150.131 Y117.871 E9.33183
G1 X149.018 Y118.032 E9.38794
G1 X148.583 Y118.088 E9.40982
G1 X146.907 Y118.352 E9.49446
G1 X146.256 Y118.445 E9.52727
G1 X145.642 Y118.479 E9.55795
G1 X142.636 Y118.48 E9.70792
G1 X141.917 Y118.469 E9.7438
G1 X141.553 Y118.437 E9.76203
G1 X140.401 Y118.256 E9.82021
G1 X137.866 Y117.894 E9.94796
G1 X136.605 Y117.696 E10.01164
G1 X133.86 Y117.304 E10.14998
G1 X131.165 Y116.997 E10.2853
G1 X128.389 Y116.761 E10.4243
G1 X125.638 Y116.604 E10.56177
G1 X122.883 Y116.525 E10.69927
G1 X121.47 Y116.515 E10.76977
G1 X62.894 Y116.515 E13.69214
G1 X62.192 Y116.505 E13.72717
G1 X61.588 Y116.427 E13.75755
G1 X60.815 Y116.237 E13.79726
G1 X58.113 Y115.614 E13.9356
G1 X55.384 Y115.064 E14.07449
G1 X52.705 Y114.607 E14.21008
G1 X50.992 Y114.363 E14.2964
G1 X50.425 Y114.273 E14.32504
G1 X49.983 Y114.162 E14.34778
G1 X49.567 Y113.976 E14.37051
G1 X49.19 Y113.72 E14.39325
G1 X48.864 Y113.403 E14.41593
G1 X48.598 Y113.033 E14.43867
G1 X48.4 Y112.622 E14.46143
G1 X48.277 Y112.184 E14.48413
G1 X48.225 Y111.443 E14.52119
G1 X48.224 Y107.574 E14.71421
G1 X48.235 Y106.875 E14.74909
G1 X48.309 Y106.299 E14.77806
G1 X48.584 Y105.175 E14.83579
G1 X48.757 Y104.508 E14.87017
G1 X49.371 Y101.829 E15.00729
G1 X49.916 Y99.098 E15.14623
G1 X50.375 Y96.401 E15.28272
G1 X50.758 Y93.698 E15.41892
G1 X51.068 Y90.941 E15.55733
G1 X51.299 Y88.195 E15.69481
G1 X51.453 Y85.445 E15.83223
G1 X51.528 Y82.696 E15.96943
G1 X51.526 Y79.943 E16.10677
G1 X51.445 Y77.19 E16.24418
G1 X51.285 Y74.399 E16.38365
G1 X51.052 Y71.698 E16.51891
G1 X50.74 Y68.972 E16.6558
G1 X50.341 Y66.19 E16.79601
G1 X49.882 Y63.527 E16.93083
G1 X49.339 Y60.827 E17.06823
G1 X48.706 Y58.092 E17.20828
G1 X48.375 Y56.791 E17.27526
G1 X48.319 Y56.578 E17.28625
G1 X48.235 Y55.995 E17.31563
G1 X48.224 Y55.585 E17.3361
G1 X48.224 Y51.758 E17.52703
G1 X48.234 Y51.086 E17.56056
G1 X48.281 Y50.633 E17.58328
G1 X48.406 Y50.195 E17.606
G1 X48.606 Y49.785 E17.62876
G1 X48.874 Y49.417 E17.65147
G0 F6000 X49.267 Y49.581
G1 F3000 X49.588 Y49.312 E17.67237
G1 X49.954 Y49.109 E17.69325
G1 X50.519 Y48.948 E17.72256
G1 X51.46 Y48.812 E17.76999
G1 X54.206 Y48.379 E17.90868
G1 X56.966 Y47.863 E18.04877
G1 X59.651 Y47.282 E18.18582
G1 X61.039 Y46.941 E18.25713
G1 X61.733 Y46.781 E18.29266
G1 X62.487 Y46.716 E18.33042
G1 X121.489 Y46.715 E21.27404
G1 X124.295 Y46.675 E21.41404
G1 X127.065 Y46.558 E21.55236
G1 X129.801 Y46.364 E21.68921
G1 X132.561 Y46.09 E21.82758
G1 X135.299 Y45.74 E21.96529
G1 X137.354 Y45.416 E22.06908
G1 X138.058 Y45.33 E22.10447
G1 X138.521 Y45.317 E22.12757
G1 X141.309 Y45.196 E22.2668
G1 X141.814 Y45.168 E22.29203
G1 X142.214 Y45.157 E22.312
G1 X145.317 Y45.157 E22.4668
G1 X146.086 Y45.169 E22.50518
G1 X147.004 Y45.208 E22.55102
G1 X148.064 Y45.267 E22.60398
G1 X148.88 Y45.291 E22.64471
G1 X149.847 Y45.332 E22.693
G1 X150.262 Y45.39 E22.7139
G1 X150.773 Y45.58 E22.7411
G1 X153.35 Y46.926 E22.88615
G1 X155.106 Y47.792 E22.98383
G1 X155.59 Y48.043 E23.01103
G1 X156.179 Y48.368 E23.04459
G1 X156.438 Y48.531 E23.05986
G1 X156.925 Y48.877 E23.08967
G1 X157.468 Y49.286 E23.12358
G1 X157.65 Y49.439 E23.13544
G1 X158.124 Y49.886 E23.16795
G1 X158.592 Y50.353 E23.20093
G1 X158.752 Y50.53 E23.21284
G1 X159.124 Y50.992 E23.24243
G1 X159.559 Y51.568 E23.27844
G1 X159.734 Y51.83 E23.29416
G1 X160.041 Y52.349 E23.32424
G1 X160.345 Y52.89 E23.3552
G1 X160.456 Y53.119 E23.3679
G1 X160.723 Y53.757 E23.4024
G1 X160.857 Y54.107 E23.4211
G1 X161.318 Y55.433 E23.49114
G1 X161.536 Y56.105 E23.52639
G1 X161.751 Y56.803 E23.56282
G1 X161.878 Y57.375 E23.59206
G1 X161.902 Y58.205 E23.63348
G1 X161.848 Y58.647 E23.6557
G1 X161.598 Y59.752 E23.71222
G1 X161.022 Y62.463 E23.85049
G1 X160.523 Y65.191 E23.98885
G1 X160.105 Y67.903 E24.12575
G1 X159.761 Y70.651 E24.26392
G1 X159.493 Y73.419 E24.40266
G1 X159.306 Y76.183 E24.54087
G1 X159.197 Y78.923 E24.67768
G1 X159.165 Y81.696 E24.81603
G1 X159.212 Y84.469 E24.9544
G1 X159.338 Y87.241 E25.09284
G1 X159.54 Y89.976 E25.22966
G1 X159.824 Y92.765 E25.36952
G1 X160.181 Y95.488 E25.50653
G1 X160.611 Y98.185 E25.64279
G1 X161.133 Y100.946 E25.78298
G1 X161.842 Y104.159 E25.94713
G1 X161.912 Y104.867 E25.98262
G1 X161.882 Y105.386 E26.00856
G1 X161.754 Y106.012 E26.04044
G1 X161.502 Y106.833 E26.08328
G1 X161.195 Y107.775 E26.13271
G1 X161.067 Y108.148 E26.15239
G1 X160.646 Y109.257 E26.21157
G1 X160.346 Y109.935 E26.24856
G1 X160.012 Y110.529 E26.28255
G1 X159.679 Y111.085 E26.31489
G1 X159.213 Y111.722 E26.35426
G1 X158.738 Y112.314 E26.39213
G1 X158.574 Y112.496 E26.40435
G1 X158.079 Y112.987 E26.43914
G1 X157.646 Y113.394 E26.46879
G1 X157.389 Y113.606 E26.48541
G1 X156.898 Y113.972 E26.51596
G1 X156.373 Y114.341 E26.54797
G1 X156.171 Y114.467 E26.55985
G1 X155.581 Y114.792 E26.59346
G1 X154.52 Y115.334 E26.6529
G1 X152.961 Y116.105 E26.73967
G1 X152.052 Y116.592 E26.79112
G1 X151.945 Y116.637 E26.79691
G1 X150.779 Y117.247 E26.86256
G1 X150.391 Y117.405 E26.88346
G1 X150.074 Y117.475 E26.89966
G1 X148.967 Y117.635 E26.95546
G1 X148.541 Y117.69 E26.97689
G1 X146.85 Y117.956 E27.06229
G1 X146.199 Y118.049 E27.0951
G1 X145.631 Y118.079 E27.12348
G1 X142.642 Y118.08 E27.2726
G1 X141.923 Y118.069 E27.30847
G1 X141.615 Y118.042 E27.3239
G1 X140.458 Y117.86 E27.38233
G1 X137.928 Y117.498 E27.50984
G1 X136.697 Y117.305 E27.572
G1 X133.929 Y116.91 E27.7115
G1 X131.173 Y116.596 E27.84989
G1 X128.41 Y116.36 E27.98823
G1 X125.673 Y116.204 E28.12501
G1 X122.897 Y116.125 E28.26356
G1 X121.473 Y116.115 E28.3346
G1 X62.9 Y116.115 E31.25682
G1 X62.198 Y116.105 E31.29185
G1 X61.684 Y116.038 E31.31771
G1 X60.928 Y115.852 E31.35655
G1 X58.21 Y115.226 E31.4957
G1 X55.459 Y114.671 E31.63571
G1 X52.757 Y114.211 E31.77246
G1 X51.055 Y113.968 E31.85823
G1 X50.488 Y113.878 E31.88687
G1 X50.082 Y113.773 E31.9078
G1 X49.704 Y113.593 E31.92868
G1 X49.366 Y113.345 E31.9496
G1 X49.082 Y113.037 E31.9705
G1 X48.861 Y112.681 E31.9914
G1 X48.712 Y112.289 E32.01233
G1 X48.634 Y111.765 E32.03876
G1 X48.624 Y111.373 E32.05832
G1 X48.624 Y107.58 E32.24755
G1 X48.635 Y106.881 E32.28243
G1 X48.698 Y106.394 E32.30693
G1 X48.971 Y105.276 E32.36435
G1 X49.152 Y104.577 E32.40037
G1 X49.759 Y101.932 E32.53576
G1 X50.31 Y99.166 E32.67647
G1 X50.774 Y96.441 E32.81438
G1 X51.158 Y93.731 E32.95093
G1 X51.467 Y90.98 E33.08904
G1 X51.696 Y88.252 E33.22562
G1 X51.854 Y85.433 E33.36648
G1 X51.928 Y82.706 E33.50258
G1 X51.926 Y79.932 E33.64098
G1 X51.845 Y77.155 E33.77958
G1 X51.689 Y74.439 E33.9153
G1 X51.449 Y71.655 E34.05471
G1 X51.135 Y68.908 E34.19265
G1 X50.74 Y66.152 E34.33156
G1 X50.273 Y63.446 E34.46856
G1 X49.725 Y60.719 E34.60733
G1 X49.096 Y58.002 E34.74646
G1 X48.762 Y56.689 E34.81406
G1 X48.635 Y55.983 E34.84984
G1 X48.624 Y55.585 E34.86971
G1 X48.624 Y51.764 E35.06034
G1 X48.634 Y51.092 E35.09387
G1 X48.68 Y50.676 E35.11475
G1 X48.805 Y50.276 E35.13566
G1 X49.002 Y49.906 E35.15657
G1 X49.267 Y49.581 E35.17749
G1 F2400 E34.47749
G0 F6000 X133.323 Y57.715
G1 F2400 E35.17749
G1 F3000 X134.309 Y57.715 E35.22668
G1 X134.309 Y59.024 E35.29199
G1 X134.073 Y58.506 E35.32039
G1 X133.498 Y57.859 E35.36357
G1 X133.323 Y57.715 E35.37488
G0 F6000 X133.215 Y58.142
G1 F3000 X132.92 Y57.904 E35.39379
G1 X132.582 Y57.733 E35.41269
G1 X132.216 Y57.636 E35.43158
G1 X131.942 Y57.615 E35.44529
G1 X120.109 Y57.615 E36.03564
G1 X120.109 Y57.315 E36.0506
G1 X134.709 Y57.315 E36.779
G1 X134.709 Y59.588 E36.8924
G1 X134.749 Y59.965 E36.91132
G1 X134.867 Y60.325 E36.93022
G1 X135.057 Y60.652 E36.94908
G1 X135.236 Y60.861 E36.96281
G1 X135.763 Y61.388 E37
G1 X135.972 Y61.557 E37.0134
G1 X134.024 Y61.557 E37.11059
G1 X134.024 Y59.697 E37.20339
G1 X133.984 Y59.32 E37.2223
G1 X133.866 Y58.96 E37.2412
G1 X133.676 Y58.633 E37.26007
G1 X133.215 Y58.142 E37.29367
G0 F6000 X132.669 Y58.219
G1 F3000 X132.365 Y58.08 E37.31035
G1 X131.942 Y58.015 E37.3317
G1 X119.709 Y58.015 E37.94201
G1 X119.709 Y56.915 E37.99688
G1 X135.109 Y56.915 E38.76519
G1 X135.109 Y59.588 E38.89855
G1 X135.149 Y59.92 E38.91523
G1 X135.266 Y60.232 E38.93186
G1 X135.519 Y60.578 E38.95324
G1 X136.046 Y61.105 E38.99043
G1 X136.309 Y61.311 E39.00709
G1 X136.613 Y61.45 E39.02377
G1 X137.036 Y61.515 E39.04512
G1 X138.824 Y61.515 E39.13432
G1 X138.824 Y61.957 E39.15638
G1 X133.624 Y61.957 E39.4158
G1 X133.624 Y59.697 E39.52856
G1 X133.584 Y59.365 E39.54524
G1 X133.467 Y59.053 E39.56186
G1 X133.214 Y58.707 E39.58325
G1 X132.669 Y58.219 E39.61975
G0 F6000 X132.649 Y58.708
G1 F3000 X132.423 Y58.539 E39.63382
G1 X132.159 Y58.439 E39.64791
G1 X131.942 Y58.415 E39.6588
G1 X119.309 Y58.415 E40.28906
G1 X119.309 Y56.515 E40.38386
G1 X135.509 Y56.515 E41.19208
G1 X135.509 Y59.588 E41.34539
G1 X135.549 Y59.867 E41.35945
G1 X135.665 Y60.124 E41.37352
G1 X135.802 Y60.295 E41.38445
G1 X136.329 Y60.822 E41.42163
G1 X136.555 Y60.991 E41.43571
G1 X136.819 Y61.091 E41.4498
G1 X137.036 Y61.115 E41.46069
G1 X139.224 Y61.115 E41.56985
G1 X139.224 Y62.357 E41.63181
G1 X133.224 Y62.357 E41.93115
G1 X133.224 Y59.697 E42.06386
G1 X133.184 Y59.418 E42.07792
G1 X133.068 Y59.161 E42.09199
G1 X132.649 Y58.708 E42.12278
G0 F6000 X132.366 Y58.991
G1 F3000 X132.187 Y58.867 E42.13364
G1 X131.942 Y58.815 E42.14613
G1 X118.909 Y58.815 E42.79635
G1 X118.909 Y56.115 E42.93106
G1 X135.909 Y56.115 E43.77919
G1 X135.909 Y59.588 E43.95246
G1 X135.949 Y59.803 E43.96337
G1 X136.085 Y60.012 E43.97581
G1 X136.612 Y60.539 E44.01299
G1 X136.791 Y60.663 E44.02386
G1 X137.036 Y60.715 E44.03635
G1 X139.624 Y60.715 E44.16547
G1 X139.624 Y62.757 E44.26734
G1 X132.824 Y62.757 E44.6066
G1 X132.824 Y59.697 E44.75926
G1 X132.784 Y59.482 E44.77017
G1 X132.648 Y59.273 E44.78261
G1 X132.366 Y58.991 E44.80251
G0 F6000 X132.083 Y59.274
G1 F3000 X131.942 Y59.215 E44.81013
G1 X118.509 Y59.215 E45.48031
G1 X118.509 Y55.715 E45.65492
G1 X136.309 Y55.715 E46.54297
G1 X136.309 Y59.588 E46.73619
G1 X136.368 Y59.729 E46.74382
G1 X136.895 Y60.256 E46.781
G1 X137.036 Y60.315 E46.78863
G1 X140.024 Y60.315 E46.9377
G1 X140.024 Y63.157 E47.07949
G1 X132.424 Y63.157 E47.45865
G1 X132.424 Y59.697 E47.63127
G1 X132.365 Y59.556 E47.6389
G1 X132.083 Y59.274 E47.6588
G1 F2400 E46.9588
G0 F6000 X134.424 Y60.261
G1 F2400 E47.6588
G1 F3000 X134.66 Y60.779 E47.6872
G1 X134.966 Y61.157 E47.71146
G1 X134.424 Y61.157 E47.7385
G1 X134.424 Y60.261 E47.7832
G1 F2400 E47.0832
G0 F6000 X138.31 Y48.015
G1 F2400 E47.7832
G1 F3000 X138.31 Y47.72 E47.79792
G1 X141.679 Y47.72 E47.966
G1 X141.807 Y47.674 E47.97278
G1 X141.948 Y47.557 E47.98193
G1 X145.92 Y47.557 E48.18009
G1 X146.061 Y47.674 E48.18923
G1 X146.189 Y47.72 E48.19602
G1 X149.558 Y47.72 E48.3641
G1 X149.558 Y48.015 E48.37881
G1 X138.31 Y48.015 E48.93998
G1 F2400 E48.23998
G0 F6000 X110.024 Y60.315
G1 F2400 E48.93998
G1 F3000 X110.024 Y63.157 E49.08177
G1 X102.424 Y63.157 E49.46093
G1 X102.424 Y60.315 E49.60272
G1 X110.024 Y60.315 E49.98189
G0 F6000 X109.624 Y60.715
G1 F3000 X109.624 Y62.757 E50.08376
G1 X102.824 Y62.757 E50.42301
G1 X102.824 Y60.715 E50.52489
G1 X109.624 Y60.715 E50.86414
G0 F6000 X109.224 Y61.115
G1 F3000 X109.224 Y62.357 E50.92611
G1 X103.224 Y62.357 E51.22545
G1 X103.224 Y61.115 E51.28741
G1 X109.224 Y61.115 E51.58675
G0 F6000 X108.824 Y61.515
G1 F3000 X108.824 Y61.957 E51.6088
G1 X103.624 Y61.957 E51.86823
G1 X103.624 Y61.515 E51.89029
G1 X108.824 Y61.515 E52.14971
G1 F2400 E51.44971
G0 F6000 X110.024 Y99.645
G1 F2400 E52.14971
G1 F3000 X110.024 Y102.515 E52.2929
G1 X102.424 Y102.515 E52.67206
G1 X102.424 Y99.645 E52.81525
G1 X110.024 Y99.645 E53.19442
G0 F6000 X109.624 Y100.045
G1 F3000 X109.624 Y102.115 E53.29769
G1 X102.824 Y102.115 E53.63694
G1 X102.824 Y100.045 E53.74021
G1 X109.624 Y100.045 E54.07947
G0 F6000 X109.224 Y100.445
G1 F3000 X109.224 Y101.715 E54.14283
G1 X103.224 Y101.715 E54.44217
G1 X103.224 Y100.445 E54.50553
G1 X109.224 Y100.445 E54.80487
G0 F6000 X108.824 Y100.845
G1 F3000 X108.824 Y101.315 E54.82832
G1 X103.624 Y101.315 E55.08775
G1 X103.624 Y100.845 E55.1112
G1 X108.824 Y100.845 E55.37063
G1 F2400 E54.67063
G0 F6000 X132.424 Y99.645
G1 F2400 E55.37063
G1 F3000 X140.024 Y99.645 E55.74979
G1 X140.024 Y102.515 E55.89298
G1 X137.036 Y102.515 E56.04205
G1 X136.895 Y102.574 E56.04967
G1 X136.368 Y103.101 E56.08686
G1 X136.309 Y103.242 E56.09448
G1 X136.309 Y107.115 E56.28771
G1 X118.509 Y107.115 E57.17575
G1 X118.509 Y103.615 E57.35037
G1 X131.942 Y103.615 E58.02054
G1 X132.083 Y103.556 E58.02817
G1 X132.365 Y103.274 E58.04807
G1 X132.424 Y103.133 E58.05569
G1 X132.424 Y99.645 E58.22971
G0 F6000 X132.824 Y100.045
G1 F3000 X139.624 Y100.045 E58.56896
G1 X139.624 Y102.115 E58.67223
G1 X137.036 Y102.115 E58.80135
G1 X136.821 Y102.155 E58.81226
G1 X136.612 Y102.291 E58.8247
G1 X136.085 Y102.818 E58.86188
G1 X135.961 Y102.997 E58.87275
G1 X135.909 Y103.242 E58.88524
